X: 33004
T: Pretty Peg
R: reel
M: 4/4
K: Dmajor
d2fd AFDF|d2fd egfe|d2fd AFDF|1 GEFD EDB,A,:|2 dfeg fd d2||
FDAD BDAD|FDAD CEEG|FDAD BDAD|GEFD A,DDG|
FDAD BDAD|FDAD CEEG|FAdf ecdB|Agfe fd d2||

